X: 14011
T: The CABIN REEL
C: Bob McQuillen August '09
B: Bob's Note Book 14 #11
%R: reel
%D:2009
Z: 2020 John Chambers <jc:trillian.mit.edu>
M: C
L: 1/8
K: D
df \
| a2fd edBA | dBAF EDFE | D2FA BAdB | ABde fedf |
| a2fd edBA | dBAF EFDE | FABA FAdB | ABde fe  :|
|: fd \
| B2df efde | fafd B2df | a2fd BAdB | ABde fded |
| Bdef e2df | edfd B2AB | dfed BAdf | afef d2  :|
%%begintext align
%% 25 years. Twenty-five! That's a long time.
%% That's how long Deanna Stiles has lived in
%% that nice cabin over in Deerfield, where
%% she and I have played so many so many tunes
%% together.  Happy Memories, Deanna!
%%endtext

%%sep 1 1 500

%%sep 1 1 500

